!!!COM: Schubert, Franz
!!!CNT: Deutscher
!!!TXO: Deutsch
!!!OTL: "Ungeduld"
!!!OPR: Die schoene Muellerin
!!!LYR: Mu2ller, Wilhelm
!!!OPS: Opus 25
!!!ONM: No. 7
!!!ODT: 1823/
!!NB: Vocal melody only encoded.
**kern	**silbe
*clefG2	*
*k[f#c#g#]	*
*M3/4	*
*MM[geschwind]	*
=8	=8
4r	.
4r	.
8r	.
{8e	{Ich
=9	=9
8.cc#	schnitt'
16b	es
8.a	gern
16g#	in
8.b	al-
16a	-le
=10	=10
8.g#	Rin-
16f#	-den
4f#}	ein,}
8r	.
{8f#	{ich
=11	=11
8.dd	gru2b'
16cc#	es
8.b	gern
16a#	in
8.cc#	je-
16b	-den
=12	=12
8.an	Kie-
16g#	-sel-
4g#}	-stein,}
8r	.
{8cc#	{ich
=13	=13
8.ee	mo2cht'
16dd	es
8.b	sa2n
16g#	auf
8.b	je-
16dd	-des
=14	=14
8.ff#	fri-
16ee	-sche
4cc#}	Beet,}
8r	.
{8ee	{mit
=15	=15
8.ee	Kres-
16ggn	-sen-
8.ggn	-sa-
16ff#	-men,
8.ff#	der
16ee	es
=16	=16
8.cc#	schnell
16ee	ver-
4dd}	-ra2th,}
8r	.
{8cc#	{auf
=17	=17
8.b	je-
16ff#	-den
8.ff#	wei-
16ee	-ssen
8.ee	Zet-
16dd	-tel
=18	=18
8.dd	mo2cht'
16cc#	ich's
8.cc#	schrei-
16b	|
8a}	-ben:}
8r	.
=19	=19
{2ff#	{Dein
8.b	ist
16b	mein
=20	=20
2.b}	Herz,}
=21	=21
{2aa	{dein
8.dd#	ist
16dd#	mein
=22	=22
4.dd#}	Herz}
{8dd#	{und
8dd#	soll
8dd#	es
=23	=23
(4.aa	e-
8ee)	|
8cc#	-wig,
8a}	|}
=24	=24
{(4.dd	{e-
8b)	|
8g#	-wig
8e	|
=25	=25
8e	blei-
8ee	|
4dd	|
32ee	|
32dd	|
16cc#	|
8b	|
=26	=26
4a}	-ben.}
4r	.
4r	.
*-	*-
